icons/svg/wikipedia.svg

﻿<?xml version="1.0" encoding="utf-8"?>
<!DOCTYPE svg PUBLIC "-//W3C//DTD SVG 1.1//EN" "http://www.w3.org/Graphics/SVG/1.1/DTD/svg11.dtd">
<svg xmlns="http://www.w3.org/2000/svg" xmlns:xlink="http://www.w3.org/1999/xlink" version="1.1" baseProfile="full" width="24" height="24" viewBox="0 0 24.00 24.00" enable-background="new 0 0 24.00 24.00" xml:space="preserve">
	<path fill="#000000" fill-opacity="1" stroke-linejoin="round" d="M 14.9706,18.9504L 12.4093,12.9178C 11.3945,14.9089 10.2701,16.9781 9.30788,18.9472C 9.30255,18.9574 8.84285,18.9514 8.84265,18.9454C 7.37206,15.5137 5.84749,12.1046 4.36987,8.67562C 4.02716,7.8374 2.82727,6.48894 2.00634,6.49661C 2.00603,6.39921 2.00149,6.18219 2.00016,6.05058L 7.06251,6.04818L 7.05906,6.48835C 6.46451,6.51606 5.43731,6.8953 5.7032,7.55165C 6.41702,9.09208 8.94335,15.0606 9.62614,16.5758C 10.1028,15.6433 11.4332,13.1574 11.9808,12.1063C 11.5514,11.2252 10.1322,7.93486 9.70671,7.10603C 9.38581,6.5659 8.58057,6.4997 7.96025,6.49043C 7.96046,6.35165 7.96798,6.24546 7.96472,6.05582L 12.4154,6.06953L 12.4154,6.47367C 11.8127,6.4904 11.2424,6.71456 11.5005,7.29043C 12.0991,8.53321 12.4485,9.41771 12.9989,10.567C 13.1747,10.2304 14.0736,8.38499 14.5026,7.41058C 14.762,6.76335 14.3749,6.5204 13.2904,6.49125C 13.3048,6.38475 13.2954,6.17088 13.3044,6.06897C 14.6883,6.06376 16.778,6.05892 17.1479,6.05334L 17.1499,6.47391C 16.4436,6.50131 15.7129,6.87773 15.3311,7.46175L 13.4803,11.3002C 13.6836,11.8085 15.4627,15.7612 15.6503,16.1996L 19.477,7.36834C 19.2048,6.65311 18.3362,6.49344 17.9966,6.48538C 17.999,6.37167 17.9992,6.19791 18.0002,6.05318L 21.9948,6.08356L 22.0002,6.10375L 21.9933,6.48354C 21.117,6.50994 20.5749,6.97851 20.2511,7.74674C 19.455,9.54484 17.0216,15.24 15.3974,18.9516C 15.3952,18.9536 14.9716,18.9509 14.9706,18.9504 Z "/>
</svg>

<svg xmlns="http://www.w3.org/2000/svg" version="1.1" baseProfile="full" width="24" height="24" viewBox="0 0 24.00 24.00" xml:space="preserve"><path fill="#000" fill-opacity="1" stroke-linejoin="round" d="M14.97 18.95l-2.56-6.032c-1.015 1.99-2.14 4.06-3.102 6.03-.005.01-.465.003-.465-.003-1.47-3.43-2.996-6.84-4.473-10.27-.343-.838-1.543-2.186-2.364-2.178C2.006 6.4 2 6.182 2 6.05l5.063-.002-.004.44c-.595.028-1.623.407-1.357 1.064.714 1.54 3.24 7.51 3.923 9.024.477-.933 1.807-3.42 2.355-4.47-.43-.88-1.848-4.17-2.273-5-.32-.54-1.126-.606-1.747-.616 0-.138.008-.245.005-.434l4.45.014v.404c-.602.016-1.173.24-.914.816.6 1.243.948 2.128 1.5 3.277.175-.337 1.074-2.182 1.503-3.156.26-.647-.128-.89-1.213-.92.015-.105.005-.32.014-.42 1.384-.006 3.474-.01 3.844-.017l.002.42c-.706.028-1.437.405-1.82.99L13.48 11.3c.204.508 1.983 4.46 2.17 4.9l3.827-8.832c-.272-.715-1.14-.875-1.48-.883.002-.113.002-.287.003-.432l3.995.03.005.02-.007.38c-.876.027-1.418.496-1.742 1.264-.795 1.798-3.228 7.493-4.853 11.205-.002.002-.425 0-.426-.002z"/></svg>
